svg/600/rounded/visibility.svg

<svg xmlns="http://www.w3.org/2000/svg" width="48" height="48" viewBox="0 -960 960 960"><path d="M480.118-330Q551-330 600.5-379.618q49.5-49.617 49.5-120.5Q650-571 600.382-620.5q-49.617-49.5-120.5-49.5Q409-670 359.5-620.382q-49.5 49.617-49.5 120.5Q310-429 359.618-379.5q49.617 49.5 120.5 49.5Zm-.22-67.044q-42.941 0-72.898-30.059-29.956-30.058-29.956-72.999 0-42.941 30.059-72.898 30.058-29.956 72.999-29.956 42.941 0 72.898 30.059 29.956 30.058 29.956 72.999 0 42.941-30.059 72.898-30.058 29.956-72.999 29.956ZM480-186.999q-137.826 0-250.841-76.665-113.015-76.664-180.638-197.292-5.13-9.268-7.695-19.176-2.566-9.909-2.566-19.892 0-9.984 2.566-19.836 2.565-9.852 7.695-19.184 67.623-120.628 180.638-197.292Q342.174-813.001 480-813.001q137.826 0 250.841 76.665 113.015 76.664 180.638 197.292 5.13 9.268 7.695 19.176 2.566 9.909 2.566 19.892 0 9.984-2.566 19.836-2.565 9.852-7.695 19.184-67.623 120.628-180.638 197.292Q617.826-186.999 480-186.999ZM480-500Zm-.118 240Q601-260 701.935-325.5T855.87-500q-53-109-153.817-174.5Q601.237-740 480.118-740 359-740 258.065-674.5T103.13-500q54 109 154.817 174.5Q358.763-260 479.882-260Z"/></svg>

<svg xmlns="http://www.w3.org/2000/svg" width="48" height="48" viewBox="0 -960 960 960"><path d="M480.12-330q70.88 0 120.38-49.62t49.5-120.5q0-70.88-49.62-120.38T479.88-670Q409-670 359.5-620.38T310-499.88q0 70.88 49.62 120.38t120.5 49.5Zm-.22-67.04q-42.94 0-72.9-30.06-29.96-30.06-29.96-73T407.1-573q30.06-29.96 73-29.96T553-572.9q29.96 30.06 29.96 73T552.9-427q-30.06 29.96-73 29.96ZM480-187q-137.83 0-250.84-76.66-113.02-76.67-180.64-197.3-5.13-9.26-7.69-19.17-2.57-9.91-2.57-19.89 0-9.99 2.57-19.84 2.56-9.85 7.69-19.18 67.62-120.63 180.64-197.3Q342.17-813 480-813q137.83 0 250.84 76.66 113.02 76.67 180.64 197.3 5.13 9.26 7.69 19.17 2.57 9.91 2.57 19.89 0 9.99-2.57 19.84-2.56 9.85-7.69 19.18-67.62 120.63-180.64 197.3Q617.83-187 480-187Zm0-313Zm-.12 240q121.12 0 222.05-65.5Q802.87-391 855.87-500q-53-109-153.82-174.5Q601.24-740 480.12-740t-222.05 65.5Q157.13-609 103.13-500q54 109 154.82 174.5Q358.76-260 479.88-260Z"/></svg>
